frontend/src/assets/figma/downloaded/nav-title.svg

<svg preserveAspectRatio="none" width="100%" height="100%" overflow="visible" style="display: block;" viewBox="0 0 161 34" fill="none" xmlns="http://www.w3.org/2000/svg">
<path id="&#208;&#156;&#208;&#149;&#208;&#157;&#208;&#174;" d="M42.1834 0H43.9703V34H38.1115V8.398C34.069 10.302 30.7197 13.4867 28.0637 17.952C25.8178 22.508 24.3824 27.8573 23.7575 34H20.2129C19.8028 28.1293 18.3674 22.78 15.9067 17.952C13.2311 13.4867 9.88185 10.302 5.85881 8.398V34H0V0H1.78694C9.73538 1.60933 16.0336 6.29 20.6816 14.042C21.1894 14.8807 21.6288 15.6627 21.9998 16.388C22.3904 15.6173 22.8201 14.8353 23.2888 14.042C27.9367 6.29 34.235 1.60933 42.1834 0ZM70.3643 13.6V7.616C66.8295 8.636 63.6462 10.6307 60.8144 13.6H70.3643ZM53.4909 27.2H76.2231V34H46.929C46.929 24.7973 49.7901 16.83 55.5122 10.098C61.2343 3.366 68.1379 0 76.2231 0V20.4H55.9516C54.8384 22.5307 54.0182 24.7973 53.4909 27.2ZM87.9407 20.4V34H82.0819V0H87.9407V13.6H105.517V0H111.376V13.6H114.305V20.4H111.376V34H105.517V20.4H87.9407ZM161 0V34H131.706C131.706 29.1267 132.507 24.5933 134.108 20.4H126.023V34H120.164V0H126.023V13.6H137.653C138.453 12.3987 139.332 11.2313 140.289 10.098C146.011 3.366 152.915 0 161 0ZM144.42 14.892C141.314 18.5413 139.264 22.644 138.268 27.2H155.141V7.616C151.138 8.772 147.564 11.1973 144.42 14.892Z" fill="var(--fill-0, white)"/>
</svg>

<svg xmlns="http://www.w3.org/2000/svg" fill="none" overflow="visible" preserveAspectRatio="none" style="display:block" viewBox="0 0 161 34"><path fill="var(--fill-0, white)" d="M42.183 0h1.787v34h-5.858V8.398q-6.064 2.856-10.048 9.554-3.37 6.834-4.306 16.048h-3.545q-.616-8.805-4.306-16.048-4.014-6.698-10.048-9.554V34H0V0h1.787Q13.71 2.415 20.682 14.042 21.443 15.3 22 16.388q.585-1.156 1.289-2.346Q30.26 2.414 42.183 0m28.181 13.6V7.616q-5.302 1.53-9.55 5.984zM53.491 27.2h22.732V34H46.93q0-13.804 8.583-23.902T76.223 0v20.4H55.952a27.2 27.2 0 0 0-2.461 6.8m34.45-6.8V34h-5.86V0h5.86v13.6h17.576V0h5.859v13.6h2.929v6.8h-2.929V34h-5.859V20.4zM161 0v34h-29.294q0-7.31 2.402-13.6h-8.085V34h-5.859V0h5.859v13.6h11.63a39 39 0 0 1 2.636-3.502Q148.872 0 161 0m-16.58 14.892q-4.659 5.474-6.152 12.308h16.873V7.616q-6.005 1.734-10.721 7.276"/></svg>
